X: 18
T: L'autrier / H\'e amy / Adieu l'abesse
N: Derived from Ano3024-Lautrier__He_amy__Adieu_labesse--Dijon_Chansonnier.krn
C: Anonymous
%%abc-version 2.0
%%abcx-abcm2ps-target-version 5.9.1 (29 Sep 2008)
%%abc-creator hum2abc beta
%%abcx-conversion-date 2019/02/16 20:18:27
%%abc-edited-by Jesse Rodin
%%abc-edited-by Chris Gage 03-05-2015
%%abcx-initial-encoding-date 2015/03/14/
%%humdrum-veritas 2351408244
%%humdrum-veritas-data 3906450951
%%linebreak <none>
%%barnumbers 0
L: 1/4
M: 2/1
Q: 1/2=120
%%staves [1 2 3 4]
V: 1 clef=treble
V: 2 clef=treble-8
V: 3 clef=treble-8
V: 4 clef=bass
K: C
[V:1] A8 | 
[V:2] A4A4 | 
[V:3] z8 | 
[V:4] D,8 | 
[V:1] G4A4 | 
[V:2] B4c4 | 
[V:3] z8 | 
[V:4] G,4F,4 | 
[V:1] F4D4 | 
[V:2] d8 | 
[V:3] D8 | 
[V:4] A,8 | 
[V:1] F6ED | 
[V:2] A8 | 
[V:3] D4D4 | 
[V:4] z4A,4 | 
[V:1] C4c4- | 
[V:2] z8 | 
[V:3] A8- | 
[V:4] A,,8 | 
[V:1] c4B4 | 
[V:2] z8 | 
[V:3] A4B4 | 
[V:4] D,8- | 
[V:1] A8 | 
[V:2] z8 | 
[V:3] d6c2 | 
[V:4] D,8 | 
[V:1] G2G4F2 | 
[V:2] d6c2 | 
[V:3] B4A4 | 
[V:4] G,4D,4 | 
[V:1] G4E4 | 
[V:2] B4G4 | 
[V:3] G8 | 
[V:4] E,8- | 
[V:1] G6F2 | 
[V:2] B8 | 
[V:3] z8 | 
[V:4] E,8 | 
[V:1] A8 | 
[V:2] A8 | 
[V:3] c8 | 
[V:4] A,,8 | 
[V:1] z8 | 
[V:2] z8 | 
[V:3] B4A4 | 
[V:4] E,4F,4 | 
[V:1] z8 | 
[V:2] z8 | 
[V:3] G4B4- | 
[V:4] E,4D,4- | 
[V:1] z8 | 
[V:2] z8 | 
[V:3] B2A2A4- | 
[V:4] D,4C,4 | 
[V:1] z4D4 | 
[V:2] z8 | 
[V:3] A4^G4 | 
[V:4] B,,8 | 
[V:1] C8- | 
[V:2] z8 | 
[V:3] A8 | 
[V:4] A,,8 | 
[V:1] C4D4 | 
[V:2] A4A4 | 
[V:3] z8 | 
[V:4] F,8 | 
[V:1] E8 | 
[V:2] B4c4 | 
[V:3] z8 | 
[V:4] E,8 | 
[V:1] F8- | 
[V:2] d8 | 
[V:3] D8 | 
[V:4] A,8 | 
[V:1] F4D4 | 
[V:2] A8 | 
[V:3] D4D4 | 
[V:4] z8 | 
[V:1] F6E2 | 
[V:2] z8 | 
[V:3] A8- | 
[V:4] D,8 | 
[V:1] C2D2E4 | 
[V:2] z8 | 
[V:3] A4B4 | 
[V:4] F,4E,4 | 
[V:1] F4D4 | 
[V:2] z8 | 
[V:3] d6c2 | 
[V:4] D,4G,4- | 
[V:1] G4F4 | 
[V:2] d6c2 | 
[V:3] B4A4 | 
[V:4] G,2F,2D,4 | 
[V:1] G4E4 | 
[V:2] B4G4 | 
[V:3] G8 | 
[V:4] E,8 | 
[V:1] D8 | 
[V:2] B8 | 
[V:3] z8 | 
[V:4] G,8 | 
[V:1] z4A4 | 
[V:2] A8 | 
[V:3] c8 | 
[V:4] F,8 | 
[V:1] G2E2F4 | 
[V:2] z8 | 
[V:3] B4A4 | 
[V:4] G,4D,4 | 
[V:1] G4D4 | 
[V:2] z8 | 
[V:3] G4B4- | 
[V:4] E,4G,4- | 
[V:1] E4D4- | 
[V:2] z8 | 
[V:3] B2A2A4- | 
[V:4] G,4F,4 | 
[V:1] D4^C4 | 
[V:2] z8 | 
[V:3] A4G4 | 
[V:4] E,8 | 
[V:1] D4F4 | 
[V:2] z8 | 
[V:3] A8 | 
[V:4] D,8 | 
[V:1] E4C4- | 
[V:2] A4A4 | 
[V:3] z8 | 
[V:4] A,,8 | 
[V:1] C4D4 | 
[V:2] c4B4 | 
[V:3] z8 | 
[V:4] A,4G,4 | 
[V:1] E4F4 | 
[V:2] A8 | 
[V:3] z8 | 
[V:4] C8 | 
[V:1] G4E4 | 
[V:2] E8 | 
[V:3] z8 | 
[V:4] B,8 | 
[V:1] z4E4 | 
[V:2] G4G4 | 
[V:3] z8 | 
[V:4] E,4C,4 | 
[V:1] D2F4ED | 
[V:2] F4D4 | 
[V:3] A8 | 
[V:4] D,8 | 
[V:1] C8- | 
[V:2] F8 | 
[V:3] A4A4 | 
[V:4] A,,8 | 
[V:1] C4E4 | 
[V:2] E8 | 
[V:3] G8 | 
[V:4] C,8 | 
[V:1] D8 | 
[V:2] z8 | 
[V:3] G4G4 | 
[V:4] B,,8 | 
[V:1] C8- | 
[V:2] z8 | 
[V:3] A6A2 | 
[V:4] A,,8- | 
[V:1] C8 | 
[V:2] z8 | 
[V:3] A4A4 | 
[V:4] A,,8- | 
[V:1] z4C4- | 
[V:2] A4A4 | 
[V:3] E8 | 
[V:4] A,,8 | 
[V:1] C4D4 | 
[V:2] c4B4 | 
[V:3] z8 | 
[V:4] A,,4G,,4 | 
[V:1] F4E4 | 
[V:2] A8 | 
[V:3] z8 | 
[V:4] D,4A,,4- | 
[V:1] C8 | 
[V:2] E8 | 
[V:3] z8 | 
[V:4] A,,2B,,2C,4- | 
[V:1] C4B,4 | 
[V:2] G4G4 | 
[V:3] z8 | 
[V:4] C,2B,,2G,,4 | 
[V:1] A,6D2- | 
[V:2] F4D4 | 
[V:3] z8 | 
[V:4] D,8 | 
[V:1] D2^C2C2B,2 | 
[V:2] E8 | 
[V:3] A8 | 
[V:4] A,,8 | 
[V:1] D8 | 
[V:2] D8 | 
[V:3] A4A4 | 
[V:4] D,8 | 
[V:1] z4D4- | 
[V:2] A4A4 | 
[V:3] D8 | 
[V:4] z8 | 
[V:1] D2E2F4 | 
[V:2] B4c4 | 
[V:3] z4A4 | 
[V:4] z8 | 
[V:1] G8 | 
[V:2] d4B4 | 
[V:3] G6F2 | 
[V:4] G,,8 | 
[V:1] C4D4 | 
[V:2] A8 | 
[V:3] E4D4 | 
[V:4] A,,4D,4 | 
[V:1] E8 | 
[V:2] z8 | 
[V:3] C8 | 
[V:4] A,,4z4 | 
[V:1] A,4z4 | 
[V:2] z8 | 
[V:3] z4D4 | 
[V:4] D,4F,2G,2 | 
[V:1] F4D4 | 
[V:2] z8 | 
[V:3] D8 | 
[V:4] A,4_B,4 | 
[V:1] F6G2 | 
[V:2] d6c2 | 
[V:3] D8 | 
[V:4] A,8 | 
[V:1] E2G4F2 | 
[V:2] B4G4 | 
[V:3] E8 | 
[V:4] G,8 | 
[V:1] D4G4 | 
[V:2] B8 | 
[V:3] G8 | 
[V:4] z4B,4 | 
[V:1] F2E4A2 | 
[V:2] A8 | 
[V:3] A4c4 | 
[V:4] C4A,4 | 
[V:1] A2G2A2F2 | 
[V:2] z8 | 
[V:3] B8 | 
[V:4] E,8 | 
[V:1] A4F4- | 
[V:2] z8 | 
[V:3] A8 | 
[V:4] F,4D,4- | 
[V:1] F4A4 | 
[V:2] A4A4 | 
[V:3] z8 | 
[V:4] D,8 | 
[V:1] G8 | 
[V:2] B4c4 | 
[V:3] z8 | 
[V:4] E,8 | 
[V:1] F4D4 | 
[V:2] d8 | 
[V:3] z8 | 
[V:4] D,8- | 
[V:1] F6E2 | 
[V:2] A8 | 
[V:3] z8 | 
[V:4] D,8 | 
[V:1] C8 | 
[V:2] z8 | 
[V:3] A8 | 
[V:4] F,8 | 
[V:1] F8 | 
[V:2] d6c2 | 
[V:3] A4A4 | 
[V:4] D,8 | 
[V:1] E4G4- | 
[V:2] B4G4 | 
[V:3] G8- | 
[V:4] E,8- | 
[V:1] G2F2E2D2 | 
[V:2] B8 | 
[V:3] G4G4 | 
[V:4] E,8 | 
[V:1] C4E4 | 
[V:2] A8 | 
[V:3] A4A4 | 
[V:4] A,,8 | 
[V:1] F2D4C2 | 
[V:2] z8 | 
[V:3] F4F4 | 
[V:4] D,4D,4 | 
[V:1] E8 | 
[V:2] z8 | 
[V:3] E8 | 
[V:4] A,,8 | 
[V:1] F8 | 
[V:2] A4A4 | 
[V:3] z4D4 | 
[V:4] D,8 | 
[V:1] E4D4 | 
[V:2] c4B4 | 
[V:3] C4D4 | 
[V:4] z8 | 
[V:1] C6B,A, | 
[V:2] A8 | 
[V:3] E4F4 | 
[V:4] A,,8 | 
[V:1] B,4E4 | 
[V:2] E8 | 
[V:3] G6F2 | 
[V:4] z8 | 
[V:1] C2D2E4 | 
[V:2] G4G4 | 
[V:3] E4E4 | 
[V:4] C,8 | 
[V:1] A,4D4 | 
[V:2] F4D4 | 
[V:3] D8 | 
[V:4] D,4B,,4 | 
[V:1] ^C2C4B,2 | 
[V:2] E8 | 
[V:3] z4A4 | 
[V:4] A,,8 | 
[V:1] D8 |]  
[V:2] D8 |]  
[V:3] A8 |]  
[V:4] D,8 & A,8 |]  



